teams/dark/120.svg

<svg xmlns="http://www.w3.org/2000/svg" viewBox="0 0 300 300"><title>Washington Nationals cap on dark logo</title><path fill="#fff" d="M233.99 51.1c-19.46-15.6-37.14 3.9-37.14 15.07 19.49 4.14 36.86 23.64 29.07 74.27-6.34 41.38-30.76 67.16-46.14 67.66 12.75-17.42 21.31-37.1 25.98-56.35 13.96-57.45-8.39-76-26.09-76.87-21.5-1.07-43.01 28.21-49.02 62.76-4.74 27.38-4.16 55.34 12.51 75.83-14.72 18.6-50.11 24.34-43.9-20.46 5.21-37.5 23.84-78.84 34.14-99.17l.31-.54c5.53-11.32 9.92-19.36 11.81-22.55l-4.15-.05c-40.28.69-72.27 9.98-87.21 30.37-13.99 19.09-14.39 39.18-2.84 51.12l1.69 1.67c3.38 3.41 7.82 5.16 12.24 5.16h.03c3.98 0 8.03-1.49 11.07-4.55 3.05-3.03 4.55-7.09 4.54-11.08 0-4.43-1.77-8.87-5.17-12.25a17.9 17.9 0 0 0-6.06-3.98l.07-.12c.3-.73.66-1.44 1.05-2.13 2.7-4.74 7.42-9.05 13.57-12.15 4.83-2.43 10.53-4.1 16.69-4.72l-.97 2.08c-8.54 15.82-21.02 45.94-24.95 61.65-12.28 49.12 7.57 77.89 29.03 81.9 25.84 4.82 45.68-7.71 56.16-23.89 12.5 7.93 45.51 12.5 70.32-31.67 28.55-50.91 29.59-125.97 3.37-147Zm-73.03 145.48c-4.91-11.93-7.15-25.98-7.15-39.32 0-16.1 3.21-31.07 8.77-39.86 3.67-5.78 8-8.58 12.92-8.27 1.75.14 3.73.71 5.13 4.07 1.14 2.73 1.66 6.34 1.66 10.55 0 21-12.55 56.8-21.33 72.82Zm75.6 14.53h-1.97v5.36h-1.34v-5.36h-1.97v-1.16h5.27v1.16Zm8.95 5.36h-1.33v-5.19h-.02l-1.92 5.19h-1.27l-1.83-5.19h-.06v5.19h-1.31v-6.52h2.28l1.54 4.27h.02l1.59-4.27h2.29v6.52Z"/></svg>

<svg width="300" height="300" viewBox="0 0 300 300" fill="none" xmlns="http://www.w3.org/2000/svg">
<path d="M233.99 51.1C214.53 35.5 196.85 55 196.85 66.17C216.34 70.31 233.71 89.81 225.92 140.44C219.58 181.82 195.16 207.6 179.78 208.1C192.53 190.68 201.09 171 205.76 151.75C219.72 94.3 197.37 75.75 179.67 74.88C158.17 73.81 136.66 103.09 130.65 137.64C125.91 165.02 126.49 192.98 143.16 213.47C128.44 232.07 93.05 237.81 99.26 193.01C104.47 155.51 123.1 114.17 133.4 93.84L133.71 93.3C139.24 81.98 143.63 73.94 145.52 70.75L141.37 70.7C101.09 71.39 69.1 80.68 54.16 101.07C40.17 120.16 39.77 140.25 51.32 152.19L53.01 153.86C56.39 157.27 60.83 159.02 65.25 159.02H65.28C69.26 159.02 73.31 157.53 76.35 154.47C79.4 151.44 80.9 147.38 80.89 143.39C80.89 138.96 79.12 134.52 75.72 131.14C73.9926 129.414 71.9303 128.059 69.66 127.16L69.73 127.04C70.03 126.31 70.39 125.6 70.78 124.91C73.48 120.17 78.2 115.86 84.35 112.76C89.18 110.33 94.88 108.66 101.04 108.04L100.07 110.12C91.53 125.94 79.05 156.06 75.12 171.77C62.84 220.89 82.69 249.66 104.15 253.67C129.99 258.49 149.83 245.96 160.31 229.78C172.81 237.71 205.82 242.28 230.63 198.11C259.18 147.2 260.22 72.14 234 51.11L233.99 51.1ZM160.96 196.58C156.05 184.65 153.81 170.6 153.81 157.26C153.81 141.16 157.02 126.19 162.58 117.4C166.25 111.62 170.58 108.82 175.5 109.13C177.25 109.27 179.23 109.84 180.63 113.2C181.77 115.93 182.29 119.54 182.29 123.75C182.29 144.75 169.74 180.55 160.96 196.57V196.58Z" fill="white"/>
</svg>
